!!!OTL: Guckkastenlied.
!!!OTL-incipit: RARITETE SEIN ZU SEHN
!!!COM: Volksweise
!!!ARE: Europa, Mitteleuropa, Deutschland
!!!SCT: F0083
!!!TXL: @@NDS
!!!YEM: Copyright 1995, estate of Helmut Schaffrath.
**kern	**text
*ICvox	*
*clefG2	*
*M2/4	*
*k[]	*
*C:	*
=1	=1
!LO:TX:a:t=P:only higher voice encoded:problem	!
!LO:TX:a:t=Mäßig.	!
{8g	Ra-
8g	-ri-
8cc	-te
8g	te
=2	=2
8e	ſein
8g	ßu
4c}	ſehn,
=3	=3
{8g	ſchö-
8cc/	-ne
8cc/	Ra-
8ee	-ri-
=4	=4
8.dd/L	-te-
16bJ	.
8g	-te!
8r}	.
=5	=5
{8g	Sall
8g	ſick
8cc	uff-
8g	-mar-
=6	=6
8e	-ſchie-
8g	-re
4c}	ſehn
=7	=7
{8g	in
8cc/	die
8cc/	gro-
8ee	-ſe
=8	=8
8.dd/L	Stä-
16bJ	.
8g	-te,
8r}	.
=9	=9
{8ee	Of-
8cc/	-ſis-
8cc/	-ſier
16dd/L	un
16eeJ	.
=10	=10
8ff'	Muske-
8dd	.
4dd}	-tier,
=11	=11
{8ee'	Schwarʒhu-
8cc/	.
8cc/	-ſar
16dd/L	un
16eeJ	.
=12	=12
8dd/	Gre-
8b/	-na-
4g}	-dier,
=13	=13
{8.cc/	lau-
16b/	-ter
8cc/	ſchö-
(16eL	-ne
16fJ)	.
=14	=14
4g	Leu-
8c	-te!
8r;}	.
==	==
!!!AGN: Kirmes -, Guckkasten - Lied
!!!ONB: ESAC (Essen Associative Code) Database: FINK
!!!AMT: simple duple
!!!AIN: vox
!!!EED: Helmut Schaffrath
!!!EEV: 1.0
!!!GTL: Volkslieder
!!Text: Volkslied
!!!source: Musikalischer Hausschatz der Deutschen. Eine Sammlung von über 1000 Liedern und Gesängen mit Singstimmen und Klavierbegleitung. Leipzig, Litterarisches Verlags-Haus.
!!!page: 50
!!!URL-scan: https://www.digitale-sammlungen.de/en/view/bsb11144622?page=58,59
!!!ENC: Anna Maria Matuszewska
!!!EEV: 2024/07/25
*-	*-
